dsu.svg

<svg clip-rule="evenodd" fill-rule="evenodd" stroke-linejoin="round" stroke-miterlimit="1.41421" viewBox="0 0 6809 2384" xmlns="http://www.w3.org/2000/svg" xmlns:xlink="http://www.w3.org/1999/xlink"><linearGradient id="a" gradientTransform="matrix(0 888.436 -10093.5 0 3038.46 508.947)" gradientUnits="userSpaceOnUse" x1="0" x2="1" y1="0" y2="0"><stop offset="0" stop-opacity=".301961"/><stop offset="1" stop-color="#4d4d4d" stop-opacity="0"/></linearGradient><path d="m147.012 340.981h2346.46v1055.58h-2346.46z" fill="#1f1814" transform="matrix(2.85891 0 0 2.21048 -370.293 -703.73)"/><g fill="#b1a080"><path d="m143.942 352.056h-37.185v984.044c0 11.84 16.662 21.47 37.185 21.47z" transform="matrix(1.34464 0 0 2.32884 -143.543 -778.21)"/><path d="m143.942 352.056h-37.185v1005.514c20.523 0 37.185-9.63 37.185-21.47z" transform="matrix(1.34464 0 0 2.32884 6614.787 -778.21)"/><path d="m143.942 359.44c0-4.075-16.662-7.384-37.185-7.384v1005.514c20.523 0 37.185-3.31 37.185-7.39z" transform="matrix(0 -1.34464 6.77103 0 -2383.773 193.55)"/></g><path d="m1649.4 497.154h2566.01v941.091h-2566.01z" fill-opacity=".301961" transform="matrix(.0194855 0 0 .177099 -32.14 295.2877)"/><path d="m1649.4 497.154h2566.01v941.091h-2566.01z" fill="url(#a)" transform="matrix(.0194855 0 0 .10626 -32.14 497.173)"/><path d="m1649.4 497.154h2566.01v941.091h-2566.01z" fill="url(#a)" transform="matrix(-.0194855 0 0 -.10626 82.14 436.161)"/><path d="m1649.4 497.154h2566.01v941.091h-2566.01z" fill-opacity=".301961" transform="matrix(.0194855 0 0 .177099 6726.197 295.2877)"/><path d="m1649.4 497.154h2566.01v941.091h-2566.01z" fill="url(#a)" transform="matrix(.0194855 0 0 .10626 6726.197 497.173)"/><path d="m1649.4 497.154h2566.01v941.091h-2566.01z" fill="url(#a)" transform="matrix(-.0194855 0 0 -.10626 6840.477 436.161)"/><path d="m2345.19 478.438c0-7.737-5.06-14.019-11.29-14.019h-1981.079c-6.232 0-11.291 6.282-11.291 14.019v672.932c0 7.74 5.059 14.02 11.291 14.02h1981.079c6.23 0 11.29-6.28 11.29-14.02z" fill="#0b0705" transform="matrix(3.01116 0 0 2.4252 -640.8989 -717.975)"/><path d="m1187.5 2500 229.17-1012.5 200-41.67-.16-820.83h-429.01z" fill-opacity=".301961" transform="translate(-1137.5 -575)"/><path d="m1187.5 2500 229.17-1012.5 200-41.67-.16-820.83h-429.01z" fill-opacity=".301961" transform="matrix(-1 0 0 1 7945.837 -575)"/><path d="m1649.4 497.154h2566.01v941.091h-2566.01z" fill-opacity=".301961" transform="matrix(2.27981 0 0 .872214 -3281.153 -383.625)"/></svg>

<?xml version="1.0" standalone="no"?>
<!DOCTYPE svg PUBLIC "-//W3C//DTD SVG 1.1//EN" "http://www.w3.org/Graphics/SVG/1.1/DTD/svg11.dtd">
<svg width="100%" height="100%" viewBox="0 0 6809 2384" version="1.1" xmlns="http://www.w3.org/2000/svg" xmlns:xlink="http://www.w3.org/1999/xlink" xml:space="preserve" style="fill-rule:evenodd;clip-rule:evenodd;stroke-linejoin:round;stroke-miterlimit:1.41421;">
    <g transform="matrix(1,0,0,1,-595.833,-575)">
        <g id="daktronic unit" transform="matrix(1,0,0,1,2666.67,875)">
            <g transform="matrix(2.85891,-9.57175e-19,-1.20012e-18,2.21048,-2441.13,-1003.73)">
                <rect x="147.012" y="340.981" width="2346.46" height="1055.58" style="fill:rgb(31,24,20);"/>
            </g>
            <g transform="matrix(1.34464,-5.90794e-17,-3.8053e-17,2.32884,-2214.38,-1078.21)">
                <path d="M143.942,352.056L106.757,352.056L106.757,1336.1C106.757,1347.94 123.419,1357.57 143.942,1357.57L143.942,352.056Z" style="fill:rgb(177,160,128);"/>
            </g>
            <g transform="matrix(1.34464,-5.90794e-17,-3.8053e-17,2.32884,4543.95,-1078.21)">
                <path d="M143.942,352.056L106.757,352.056L106.757,1357.57C127.28,1357.57 143.942,1347.94 143.942,1336.1L143.942,352.056Z" style="fill:rgb(177,160,128);"/>
            </g>
            <g transform="matrix(1.10977e-17,-1.34464,6.77103,5.06361e-16,-4454.61,-106.45)">
                <path d="M143.942,359.44C143.942,355.365 127.28,352.056 106.757,352.056L106.757,1357.57C127.28,1357.57 143.942,1354.26 143.942,1350.18L143.942,359.44Z" style="fill:rgb(177,160,128);"/>
            </g>
            <g transform="matrix(1,0,0,1,-541.667,0)">
                <g transform="matrix(0.0194855,-6.02246e-17,-1.10527e-16,0.177099,-1561.31,-4.7123)">
                    <rect x="1649.4" y="497.154" width="2566.01" height="941.091" style="fill:black;fill-opacity:0.301961;"/>
                </g>
                <g transform="matrix(0.0194855,-7.6131e-17,-5.24606e-17,0.10626,-1561.31,197.173)">
                    <rect x="1649.4" y="497.154" width="2566.01" height="941.091" style="fill:url(#_Linear1);"/>
                </g>
                <g transform="matrix(-0.0194855,7.37447e-17,6.54737e-17,-0.10626,-1447.03,136.161)">
                    <rect x="1649.4" y="497.154" width="2566.01" height="941.091" style="fill:url(#_Linear2);"/>
                </g>
            </g>
            <g transform="matrix(1,0,0,1,6216.67,0)">
                <g transform="matrix(0.0194855,-6.02246e-17,-1.10527e-16,0.177099,-1561.31,-4.7123)">
                    <rect x="1649.4" y="497.154" width="2566.01" height="941.091" style="fill:black;fill-opacity:0.301961;"/>
                </g>
                <g transform="matrix(0.0194855,-7.6131e-17,-5.24606e-17,0.10626,-1561.31,197.173)">
                    <rect x="1649.4" y="497.154" width="2566.01" height="941.091" style="fill:url(#_Linear3);"/>
                </g>
                <g transform="matrix(-0.0194855,7.37447e-17,6.54737e-17,-0.10626,-1447.03,136.161)">
                    <rect x="1649.4" y="497.154" width="2566.01" height="941.091" style="fill:url(#_Linear4);"/>
                </g>
            </g>
        </g>
        <g transform="matrix(2.45331,0,0,2.45331,52.6683,-273.574)">
            <g id="label">
                <g>
                    <path d="M465.205,1233.34C462.743,1231.34 459.295,1230.35 454.86,1230.35L437.343,1230.35L437.343,1256.84L454.86,1256.84C459.295,1256.84 462.743,1255.76 465.205,1253.6C467.667,1251.44 468.898,1248.03 468.898,1243.35C468.898,1238.67 467.667,1235.33 465.205,1233.34ZM479.457,1265.75C474.086,1270.14 466.416,1272.34 456.447,1272.34L437.343,1272.34L437.343,1304.69L418.666,1304.69L418.666,1214.72L457.85,1214.72C466.884,1214.72 474.086,1217.04 479.457,1221.68C484.828,1226.32 487.513,1233.5 487.513,1243.23C487.513,1253.85 484.828,1261.35 479.457,1265.75Z" style="fill:rgb(203,203,203);fill-rule:nonzero;"/>
                    <path d="M501.613,1214.72L520.411,1214.72L520.411,1288.51L564.967,1288.51L564.967,1304.69L501.613,1304.69L501.613,1214.72Z" style="fill:rgb(203,203,203);fill-rule:nonzero;"/>
                    <path d="M602.565,1270.69L625.392,1270.69L614.161,1235.29L602.565,1270.69ZM603.724,1214.72L624.965,1214.72L656.825,1304.69L636.439,1304.69L630.641,1286.19L597.499,1286.19L591.273,1304.69L571.62,1304.69L603.724,1214.72Z" style="fill:rgb(203,203,203);fill-rule:nonzero;"/>
                    <path d="M733.607,1214.72L733.607,1230.65L706.691,1230.65L706.691,1304.69L687.77,1304.69L687.77,1230.65L660.731,1230.65L660.731,1214.72L733.607,1214.72Z" style="fill:rgb(203,203,203);fill-rule:nonzero;"/>
                    <path d="M744.594,1214.84L808.375,1214.84L808.375,1230.65L763.27,1230.65L763.27,1251.34L802.76,1251.34L802.76,1266.97L763.27,1266.97L763.27,1304.69L744.594,1304.69L744.594,1214.84Z" style="fill:rgb(203,203,203);fill-rule:nonzero;"/>
                    <path d="M878.474,1283.02C882.848,1277.53 885.035,1269.71 885.035,1259.58C885.035,1249.49 882.848,1241.69 878.474,1236.18C874.1,1230.66 868.19,1227.9 860.743,1227.9C853.297,1227.9 847.356,1230.65 842.921,1236.14C838.486,1241.64 836.268,1249.45 836.268,1259.58C836.268,1269.71 838.486,1277.53 842.921,1283.02C847.356,1288.51 853.297,1291.26 860.743,1291.26C868.19,1291.26 874.1,1288.51 878.474,1283.02ZM890.223,1296.69C883.428,1303.69 873.602,1307.19 860.743,1307.19C847.885,1307.19 838.059,1303.69 831.263,1296.69C822.149,1288.11 817.592,1275.74 817.592,1259.58C817.592,1243.1 822.149,1230.73 831.263,1222.47C838.059,1215.47 847.885,1211.98 860.743,1211.98C873.602,1211.98 883.428,1215.47 890.223,1222.47C899.297,1230.73 903.834,1243.1 903.834,1259.58C903.834,1275.74 899.297,1288.11 890.223,1296.69Z" style="fill:rgb(203,203,203);fill-rule:nonzero;"/>
                    <path d="M936.976,1230.35L936.976,1254.52L958.278,1254.52C962.509,1254.52 965.683,1254.03 967.799,1253.05C971.543,1251.34 973.414,1247.96 973.414,1242.92C973.414,1237.47 971.604,1233.81 967.982,1231.93C965.948,1230.88 962.896,1230.35 958.827,1230.35L936.976,1230.35ZM977.29,1217.04C980.688,1218.46 983.567,1220.56 985.927,1223.33C987.88,1225.61 989.426,1228.13 990.565,1230.9C991.705,1233.66 992.274,1236.82 992.274,1240.36C992.274,1244.63 991.196,1248.83 989.039,1252.96C986.883,1257.09 983.322,1260.01 978.358,1261.72C982.509,1263.39 985.448,1265.76 987.178,1268.83C988.907,1271.9 989.772,1276.59 989.772,1282.9L989.772,1288.94C989.772,1293.05 989.935,1295.84 990.26,1297.3C990.748,1299.62 991.888,1301.33 993.678,1302.43L993.678,1304.69L972.987,1304.69C972.417,1302.69 972.011,1301.09 971.766,1299.87C971.278,1297.34 971.014,1294.76 970.973,1292.11L970.851,1283.75C970.77,1278.02 969.722,1274.19 967.708,1272.28C965.693,1270.37 961.919,1269.41 956.386,1269.41L936.976,1269.41L936.976,1304.69L918.605,1304.69L918.605,1214.72L962.733,1214.72C969.04,1214.84 973.892,1215.62 977.29,1217.04Z" style="fill:rgb(203,203,203);fill-rule:nonzero;"/>
                    <path d="M1068.08,1214.72L1095.12,1214.72L1095.12,1304.69L1077.6,1304.69L1077.6,1243.84C1077.6,1242.09 1077.62,1239.63 1077.66,1236.48C1077.7,1233.33 1077.72,1230.9 1077.72,1229.19L1060.69,1304.69L1042.44,1304.69L1025.54,1229.19C1025.54,1230.9 1025.56,1233.33 1025.6,1236.48C1025.64,1239.63 1025.66,1242.09 1025.66,1243.84L1025.66,1304.69L1008.14,1304.69L1008.14,1214.72L1035.49,1214.72L1051.85,1285.46L1068.08,1214.72Z" style="fill:rgb(203,203,203);fill-rule:nonzero;"/>
                    <path d="M1145.78,1287.29C1148.26,1281.39 1154.12,1275.15 1163.36,1268.56C1171.37,1262.82 1176.56,1258.71 1178.92,1256.23C1182.54,1252.36 1184.35,1248.13 1184.35,1243.53C1184.35,1239.79 1183.31,1236.67 1181.24,1234.19C1179.16,1231.71 1176.19,1230.47 1172.33,1230.47C1167.04,1230.47 1163.44,1232.44 1161.53,1236.39C1160.43,1238.67 1159.78,1242.29 1159.57,1247.25L1142.66,1247.25C1142.95,1239.73 1144.31,1233.64 1146.75,1229C1151.39,1220.17 1159.63,1215.76 1171.47,1215.76C1180.83,1215.76 1188.28,1218.35 1193.81,1223.54C1199.35,1228.73 1202.11,1235.6 1202.11,1244.14C1202.11,1250.69 1200.16,1256.51 1196.25,1261.6C1193.69,1264.97 1189.48,1268.74 1183.62,1272.89L1176.66,1277.83C1172.31,1280.92 1169.33,1283.16 1167.72,1284.55C1166.11,1285.93 1164.76,1287.54 1163.66,1289.37L1202.3,1289.37L1202.3,1304.69L1141.69,1304.69C1141.85,1298.34 1143.21,1292.54 1145.78,1287.29Z" style="fill:rgb(203,203,203);fill-rule:nonzero;"/>
                </g>
            </g>
        </g>
        <g transform="matrix(3.01116,1.69041e-16,1.76631e-16,2.4252,-45.0659,-142.975)">
            <g id="screen">
                <path d="M2345.19,478.438C2345.19,470.701 2340.13,464.419 2333.9,464.419L352.821,464.419C346.589,464.419 341.53,470.701 341.53,478.438L341.53,1151.37C341.53,1159.11 346.589,1165.39 352.821,1165.39L2333.9,1165.39C2340.13,1165.39 2345.19,1159.11 2345.19,1151.37L2345.19,478.438Z" style="fill:rgb(11,7,5);"/>
            </g>
        </g>
        <g id="shadow">
            <g transform="matrix(1,0,0,1,-541.667,0)">
                <path d="M1187.5,2500L1416.67,1487.5L1616.67,1445.83L1616.51,625L1187.5,625L1187.5,2500Z" style="fill:black;fill-opacity:0.301961;"/>
            </g>
            <g transform="matrix(-1,0,0,1,8541.67,0)">
                <path d="M1187.5,2500L1416.67,1487.5L1616.67,1445.83L1616.51,625L1187.5,625L1187.5,2500Z" style="fill:black;fill-opacity:0.301961;"/>
            </g>
            <g transform="matrix(2.27981,2.52831e-16,1.76766e-16,0.872214,-2685.32,191.375)">
                <rect x="1649.4" y="497.154" width="2566.01" height="941.091" style="fill:black;fill-opacity:0.301961;"/>
            </g>
        </g>
    </g>
    <defs>
        <linearGradient id="_Linear1" x1="0" y1="0" x2="1" y2="0" gradientUnits="userSpaceOnUse" gradientTransform="matrix(5.65751e-12,888.436,-10093.5,-3.378e-12,3038.46,508.947)"><stop offset="0%" style="stop-color:black;stop-opacity:0.301961"/><stop offset="100%" style="stop-color:rgb(77,77,77);stop-opacity:0"/></linearGradient>
        <linearGradient id="_Linear2" x1="0" y1="0" x2="1" y2="0" gradientUnits="userSpaceOnUse" gradientTransform="matrix(5.65751e-12,888.436,-10093.5,-3.378e-12,3038.46,508.947)"><stop offset="0%" style="stop-color:black;stop-opacity:0.301961"/><stop offset="100%" style="stop-color:rgb(77,77,77);stop-opacity:0"/></linearGradient>
        <linearGradient id="_Linear3" x1="0" y1="0" x2="1" y2="0" gradientUnits="userSpaceOnUse" gradientTransform="matrix(5.65751e-12,888.436,-10093.5,-3.378e-12,3038.46,508.947)"><stop offset="0%" style="stop-color:black;stop-opacity:0.301961"/><stop offset="100%" style="stop-color:rgb(77,77,77);stop-opacity:0"/></linearGradient>
        <linearGradient id="_Linear4" x1="0" y1="0" x2="1" y2="0" gradientUnits="userSpaceOnUse" gradientTransform="matrix(5.65751e-12,888.436,-10093.5,-3.378e-12,3038.46,508.947)"><stop offset="0%" style="stop-color:black;stop-opacity:0.301961"/><stop offset="100%" style="stop-color:rgb(77,77,77);stop-opacity:0"/></linearGradient>
    </defs>
</svg>
